!!!OTL:
!!!ONR: No. 19
!! From Madeleine Beland,
!! "Chansons de Voyageurs, Coureurs de Bois et Forestiers"
!! Quebec: Les Presses de l'universite/ Laval, 1982
!! ISBN 2-7637-6942-X
**kern
*clefG2
*k[]
*M2/4
8d
*M3/4
=
qd
4.g
16b
16g
8g
8b
*M2/4
=
8dd
8b
8r
8dd
=
16b
16a
8g
16b
8.a
=
4g
8r
8d
*M3/4
=
4.g
16b
16g
8g
8b
*M2/4
=
8dd
8b
8r
16dd
16dd
=
16b
16a
8g
8b
8a
=
4g
8r
16g
16b
*M3/4
=
qb
4.dd
8ee
8dd
8dd
*M2/4
=
16b
16a
8g
8r
8b
=
8a
16b
16cc
16dd
16b
8b
=
16b
8.a
8r
16g
16b
*M3/4
=
qb
4.dd
8ee
8dd
8dd
*M2/4
=
16b
16a
8g
8r
8b
=
8a
8d
8b
8a
=
4g
8r
==
*-
